!! 00005] TT[TB
!! Eigene Aufnahme
!!!OTL: Hong xiu xie , cf. Dong fang Hong!) Rote bestickte Schuhe
!!!ARE: Asia, China, Shanxi, Nord
!! Ethnic Group: Han
!! MM, vorhanden, handschriftlich), Original von Dong Fang Hong
!!!SCT: C0505
!!!YEM: Copyright 1995, estate of Helmut Schaffrath.
**kern
*ICvox
*Ivox
*M2/4
*k[b-]
*F:
{8cc
4cc
8dd
=1
4.g
8cc
=2
8f
8f
8e
8d
=3
2g}
=4
{8cc
4b-
8cc
=5
8.dd
16ff
8dd
8cc
=6
8a
8g
8f
8d
=7
2g}
=8
{4cc
8g
8a
=9
4f
8e
8d
=10
4c
4cc
=11
4g}
{8a
8g
=12
4f
8f
8d
=13
8g
8a
8g
8f
=14
8g
8f
8e
8d
=15
2c}
==
!!!AGN: Xiaodiao
!! Saengerin: Huang Bai. Vorlaeufer von Dong fang hong.
!!    Die 4 wird hoeher gesungen.  Glissandi. singt leichte Variante. Der 3.
!!    Ton = +1. Einmal nach Gesang korrigiert.+++ Kommentar zu Dong fan hong: +++
!!    Das Lied wurde vom Bauernsaenger Li You Yuan, 1903-1955) komponiert und
!!    hatte 12 Strophen. Es hiess "Yi Mong Ge", Den Schimmel reiten) und war
!!    ein Lied fuer Auswanderer. Der Komponist stammte aus Jia Xian in der
!!    Provinz Shanxi. 1943 wurde das Lied dann umgeschrieben. Sein Neffe, Li
!!    Zengzheng sang dieses neue Lied als erster. 1944 wurde es noch einmal
!!    bearbeitet und in der Befreiungszeitund Jief…ng Ribao gedruckt. Von
!!    dort machte es dann den Siegeszug durch die VR., Bericht: Frau Loehr)
!!    Hong shuang xie scheint also nur eine Variante, gefolgt von Qi bai ma.
!!!ONB: ESAC (Essen Associative Code) Database: CHINA
!!!AMT: simple duple
!!!AIN: vox
!!!EED: Helmut Schaffrath
!!!EEV: 1.0
*-
